epam-assets/icon-sources/18/internal-logo/networks.svg

<svg width="18" height="18" viewBox="0 0 18 18" fill="none" xmlns="http://www.w3.org/2000/svg">
<g id="18/internal-logo/networks">
<g id="icon">
<path d="M15.3432 11.6448V6.39483C15.7538 6.31589 16.0001 6.0001 16.0001 5.68431C16.0001 5.28957 15.6306 4.93431 15.22 4.93431C14.9327 4.93431 14.7684 5.05273 14.6042 5.2501L9.71857 2.52641C9.75963 2.44747 9.75963 2.32904 9.75963 2.2501C9.75963 1.85536 9.39013 1.5001 8.97957 1.5001C8.56901 1.5001 8.19951 1.85536 8.19951 2.2501C8.19951 2.36852 8.24057 2.44747 8.24057 2.52641L3.39599 5.17115C3.23177 4.97378 2.98543 4.85536 2.78016 4.85536C2.32854 4.85536 2.0001 5.21062 2.0001 5.60536C2.0001 6.0001 2.32854 6.27641 2.65699 6.31589V11.6448C2.24643 11.7238 2.0001 12.0396 2.0001 12.3554C2.0001 12.7501 2.3696 13.1054 2.78016 13.1054C3.06755 13.1054 3.23177 12.9869 3.39599 12.7896L8.24057 15.4738C8.19951 15.5527 8.19951 15.6712 8.19951 15.7501C8.19951 16.1448 8.56901 16.5001 8.97957 16.5001C9.39013 16.5001 9.75963 16.1448 9.75963 15.7501C9.75963 15.5133 9.63646 15.3159 9.43118 15.158L12.0177 10.9343L14.3579 12.2369C14.3579 12.2764 14.3579 12.3159 14.3579 12.3159C14.3579 12.7106 14.7274 13.0659 15.1379 13.0659C15.5895 13.0659 15.918 12.7106 15.918 12.3159C15.918 11.9387 15.6526 11.6448 15.3432 11.6448ZM15.0969 6.39483V11.5659L13.3725 8.8422L14.9327 6.31589C14.9737 6.35536 15.0148 6.35536 15.0969 6.39483ZM14.481 5.36852C14.44 5.44747 14.44 5.56589 14.44 5.64483C14.44 5.88168 14.5631 6.07905 14.7684 6.23694L13.2904 8.64483L9.59541 2.76326L9.63646 2.72378L14.481 5.36852ZM8.8564 3.0001L12.8388 9.27641L12.264 10.2238L6.31095 6.90799L8.73323 2.96062C8.77429 2.96062 8.81535 3.0001 8.8564 3.0001ZM8.4869 2.8422L6.06461 6.78957L3.51916 5.36852L8.32268 2.72378C8.40479 2.76326 8.44585 2.80273 8.4869 2.8422ZM2.90332 11.6448V6.39483C2.94438 6.39483 2.94438 6.39483 2.98543 6.39483L4.66872 9.15799L3.06755 11.7633C3.02649 11.6843 2.98543 11.6843 2.90332 11.6448ZM3.84761 6.35536L5.73617 7.42115L5.12033 8.40799L3.84761 6.35536ZM3.51916 12.6712C3.56021 12.5922 3.56021 12.4738 3.56021 12.3948C3.56021 12.158 3.43705 11.9606 3.23177 11.8027L4.75083 9.31589L8.40479 15.2369L8.36373 15.3159L3.51916 12.6712ZM9.26696 15.079C9.2259 15.079 9.18485 15.0396 9.14379 15.0396L5.2435 8.60536L5.90039 7.5001L11.8945 10.8948L9.26696 15.079ZM12.962 9.55273L14.0705 11.329L12.4283 10.4212L12.962 9.55273Z" fill="#6C6F80"/>
<path fill-rule="evenodd" clip-rule="evenodd" d="M3.23177 11.8027C3.43705 11.9606 3.56021 12.158 3.56021 12.3948C3.56021 12.4738 3.56021 12.5922 3.51916 12.6712L8.36373 15.3159L8.40479 15.2369L4.75083 9.31589L3.23177 11.8027ZM4.75148 9.60257L3.42628 11.772C3.59915 11.9374 3.71021 12.1451 3.71021 12.3948V12.397C3.71022 12.4356 3.71022 12.4914 3.70428 12.5485C3.70267 12.564 3.70055 12.5805 3.69763 12.5977L8.07426 14.987L4.75148 9.60257ZM3.06755 11.7633L4.66872 9.15799L2.98543 6.39483H2.90332V11.6448C2.92106 11.6534 2.93688 11.66 2.9512 11.6661C2.95099 11.666 2.95141 11.6662 2.9512 11.6661C3.0028 11.6878 3.03549 11.7016 3.06755 11.7633ZM3.05332 11.4999L4.49287 9.15765L3.05332 6.7946V11.4999ZM13.3725 8.8422L15.0969 11.5659V6.39483C15.0655 6.37976 15.0401 6.37044 15.0185 6.36248C15.0089 6.35896 15 6.3557 14.9917 6.35232C14.9695 6.34337 14.9511 6.33361 14.9327 6.31589L13.3725 8.8422ZM9.63646 2.72378L9.59541 2.76326L13.2904 8.64483L14.7684 6.23694C14.5631 6.07905 14.44 5.88168 14.44 5.64483C14.44 5.56589 14.44 5.44747 14.481 5.36852L9.63646 2.72378ZM9.96925 3.07635L13.2889 8.36051L14.5737 6.26743C14.401 6.10216 14.29 5.89444 14.29 5.64483V5.64267C14.29 5.60413 14.29 5.5483 14.2959 5.49116C14.2975 5.47571 14.2996 5.45917 14.3026 5.44199L9.96925 3.07635ZM14.9469 6.57834L13.5494 8.84122L14.9469 11.0485V6.57834ZM11.8945 10.8948L5.90039 7.5001L5.2435 8.60536L9.14379 15.0396C9.16432 15.0396 9.18485 15.0494 9.20538 15.0593C9.2259 15.0692 9.24643 15.079 9.26696 15.079L11.8945 10.8948ZM9.21872 14.8738L11.684 10.948L5.95429 7.70301L5.41844 8.6046L9.21872 14.8738ZM12.0177 10.9343L14.3579 12.2369V12.3159C14.3579 12.7106 14.7274 13.0659 15.1379 13.0659C15.5895 13.0659 15.918 12.7106 15.918 12.3159C15.918 11.9387 15.6526 11.6448 15.3432 11.6448V6.39483C15.7538 6.31589 16.0001 6.0001 16.0001 5.68431C16.0001 5.28957 15.6306 4.93431 15.22 4.93431C14.9327 4.93431 14.7684 5.05273 14.6042 5.2501L9.71857 2.52641C9.75963 2.44747 9.75963 2.32904 9.75963 2.2501C9.75963 1.85536 9.39013 1.5001 8.97957 1.5001C8.56901 1.5001 8.19951 1.85536 8.19951 2.2501C8.19951 2.31529 8.21195 2.36852 8.22314 2.41637C8.23227 2.45544 8.24057 2.49093 8.24057 2.52641L3.39599 5.17115C3.23177 4.97378 2.98543 4.85536 2.78016 4.85536C2.32854 4.85536 2.0001 5.21062 2.0001 5.60536C2.0001 6.0001 2.32854 6.27641 2.65699 6.31589V11.6448C2.24643 11.7238 2.0001 12.0396 2.0001 12.3554C2.0001 12.7501 2.3696 13.1054 2.78016 13.1054C3.06755 13.1054 3.23177 12.9869 3.39599 12.7896L8.24057 15.4738C8.19951 15.5527 8.19951 15.6712 8.19951 15.7501C8.19951 16.1448 8.56901 16.5001 8.97957 16.5001C9.39013 16.5001 9.75963 16.1448 9.75963 15.7501C9.75963 15.5133 9.63646 15.3159 9.43118 15.158L12.0177 10.9343ZM9.6258 15.1274L12.0705 11.1354L14.2079 12.3251C14.2135 12.8043 14.6533 13.2159 15.1379 13.2159C15.672 13.2159 16.068 12.7939 16.068 12.3159C16.068 11.9313 15.8282 11.5916 15.4932 11.5123V6.51154C15.8963 6.38521 16.1501 6.04493 16.1501 5.68431C16.1501 5.20123 15.7078 4.78431 15.22 4.78431C15.0541 4.78431 14.9155 4.81891 14.793 4.88713C14.7095 4.93358 14.6378 4.99327 14.5724 5.06066L9.89685 2.45407C9.89987 2.43648 9.90205 2.41956 9.90369 2.40377C9.90963 2.34664 9.90963 2.29083 9.90963 2.25228V2.2501C9.90963 1.76702 9.46736 1.3501 8.97957 1.3501C8.49178 1.3501 8.04951 1.76702 8.04951 2.2501C8.04951 2.32698 8.06305 2.38991 8.07389 2.43684L8.07514 2.44225C8.07539 2.44332 8.07564 2.44438 8.07588 2.44542L3.42562 4.98408C3.24209 4.81083 2.99978 4.70536 2.78016 4.70536C2.24611 4.70536 1.8501 5.12737 1.8501 5.60536C1.8501 6.03604 2.1654 6.34185 2.50699 6.43824V11.5281C2.10387 11.6545 1.8501 11.9947 1.8501 12.3554C1.8501 12.8384 2.29237 13.2554 2.78016 13.2554C2.94607 13.2554 3.08467 13.2208 3.20722 13.1525C3.29077 13.106 3.36254 13.0463 3.42798 12.9788L8.06223 15.5465C8.05925 15.5639 8.05708 15.5807 8.05545 15.5964C8.04951 15.6536 8.04951 15.7094 8.04951 15.7479V15.7501C8.04951 16.2332 8.49178 16.6501 8.97957 16.6501C9.46736 16.6501 9.90963 16.2332 9.90963 15.7501C9.90963 15.5004 9.79861 15.2927 9.6258 15.1274ZM5.73617 7.42115L3.84761 6.35536L5.12033 8.40799L5.73617 7.42115ZM5.12074 8.12401L5.52592 7.47474L4.28338 6.77352L5.12074 8.12401ZM8.7836 3.16534L6.52063 6.85309L12.2108 10.0224L12.6623 9.27819L8.7836 3.16534ZM12.8388 9.27641L12.264 10.2238L6.31095 6.90799L8.73323 2.96062C8.75376 2.96062 8.77429 2.97049 8.79482 2.98036C8.81535 2.99023 8.83588 3.0001 8.8564 3.0001L12.8388 9.27641ZM8.4869 2.8422C8.44585 2.80273 8.40479 2.76326 8.32268 2.72378L3.51916 5.36852L6.06461 6.78957L8.4869 2.8422ZM6.01205 6.58843L8.25596 2.93175L3.82851 5.36943L6.01205 6.58843ZM12.962 9.55273L12.4283 10.4212L14.0705 11.329L12.962 9.55273ZM12.9629 9.83762L12.6383 10.3659L13.6372 10.9181L12.9629 9.83762Z" fill="#6C6F80"/>
</g>
</g>
</svg>

<svg xmlns="http://www.w3.org/2000/svg" width="18" height="18" fill="none" viewBox="0 0 18 18">
  <path fill="#6C6F80" d="M15.343 11.645v-5.25c.41-.08.657-.395.657-.71 0-.395-.37-.75-.78-.75-.287 0-.452.118-.616.315L9.72 2.526c.04-.079.04-.197.04-.276 0-.395-.369-.75-.78-.75-.41 0-.78.355-.78.75 0 .119.042.197.042.276L3.396 5.171c-.164-.197-.41-.316-.616-.316a.765.765 0 0 0-.78.75c0 .395.329.671.657.71v5.33c-.41.079-.657.395-.657.71 0 .395.37.75.78.75.288 0 .452-.118.616-.315l4.845 2.684c-.041.079-.041.197-.041.276 0 .395.369.75.78.75.41 0 .78-.355.78-.75 0-.237-.124-.434-.329-.592l2.587-4.224 2.34 1.303v.079c0 .395.37.75.78.75.451 0 .78-.355.78-.75 0-.377-.265-.671-.575-.671Zm-.246-5.25v5.17l-1.724-2.723 1.56-2.526c.04.04.082.04.164.079Zm-.616-1.026c-.041.078-.041.197-.041.276 0 .237.123.434.328.592L13.29 8.645 9.595 2.763l.041-.04 4.845 2.646ZM8.856 3l3.983 6.276-.575.948-5.953-3.316 2.422-3.947c.041 0 .082.04.123.04Zm-.37-.158L6.066 6.79 3.519 5.369l4.804-2.645c.082.04.123.079.164.118Zm-5.583 8.803v-5.25h.082L4.67 9.158l-1.601 2.605c-.042-.079-.083-.079-.165-.118Zm.945-5.29 1.888 1.066-.616.987-1.272-2.053Zm-.329 6.316c.041-.079.041-.197.041-.276 0-.237-.123-.434-.328-.592L4.75 9.316l3.654 5.92-.041.08-4.845-2.645Zm5.748 2.408c-.041 0-.082-.04-.123-.04l-3.9-6.434L5.9 7.5l5.995 3.395-2.628 4.184Zm3.695-5.526 1.108 1.776-1.642-.908.534-.868Z"/>
  <path fill="#6C6F80" fill-rule="evenodd" d="M3.232 11.803c.205.158.328.355.328.592 0 .079 0 .197-.04.276l4.844 2.645.04-.08-3.653-5.92-1.52 2.487Zm1.52-2.2-1.326 2.169a.848.848 0 0 1 .284.623v.002a1.456 1.456 0 0 1-.012.2l4.376 2.39-3.323-5.384Zm-1.684 2.16 1.6-2.605-1.683-2.763h-.082v5.25l.048.021c.052.022.084.036.117.097Zm-.015-.263 1.44-2.342-1.44-2.363V11.5Zm10.32-2.658 1.724 2.724V6.395a.81.81 0 0 0-.079-.033l-.026-.01a.171.171 0 0 1-.06-.036l-1.56 2.526ZM9.636 2.724l-.04.04 3.694 5.88 1.478-2.407c-.205-.158-.328-.355-.328-.592 0-.08 0-.198.041-.276L9.636 2.724Zm.333.352 3.32 5.285 1.285-2.094a.848.848 0 0 1-.284-.622v-.002c0-.039 0-.095.006-.152a.711.711 0 0 1 .007-.049L9.969 3.076Zm4.978 3.502-1.398 2.263 1.398 2.208v-4.47Zm-3.052 4.317L5.9 7.5l-.657 1.105 3.9 6.435c.021 0 .042.01.062.02.02.01.041.019.062.019l2.628-4.184Zm-2.676 3.979 2.465-3.926-5.73-3.245-.536.902 3.8 6.269Zm2.799-3.94 2.34 1.303v.079c0 .395.37.75.78.75.451 0 .78-.355.78-.75 0-.377-.265-.671-.575-.671v-5.25c.41-.08.657-.395.657-.71 0-.395-.37-.75-.78-.75-.287 0-.452.118-.616.315L9.72 2.526c.04-.079.04-.197.04-.276 0-.395-.369-.75-.78-.75-.41 0-.78.355-.78.75 0 .065.013.119.024.166.01.04.018.075.018.11L3.396 5.171c-.164-.197-.41-.316-.616-.316a.765.765 0 0 0-.78.75c0 .395.329.671.657.71v5.33c-.41.079-.657.395-.657.71 0 .395.37.75.78.75.288 0 .452-.118.616-.315l4.845 2.684c-.041.079-.041.197-.041.276 0 .395.369.75.78.75.41 0 .78-.355.78-.75 0-.237-.124-.434-.329-.592l2.587-4.224Zm-2.392 4.193 2.444-3.992 2.138 1.19c.005.48.445.89.93.89.534 0 .93-.421.93-.9 0-.384-.24-.723-.575-.803v-5c.403-.127.657-.467.657-.828 0-.483-.442-.9-.93-.9a.853.853 0 0 0-.648.277L9.897 2.454a1.46 1.46 0 0 0 .013-.202V2.25c0-.483-.443-.9-.93-.9-.488 0-.93.417-.93.9a.8.8 0 0 0 .024.187l.001.005v.003l-4.65 2.54a.982.982 0 0 0-.645-.28.915.915 0 0 0-.93.9c0 .431.315.737.657.833v5.09c-.403.127-.657.467-.657.827 0 .483.442.9.93.9a.853.853 0 0 0 .648-.276l4.634 2.568a.762.762 0 0 0-.007.05c-.005.057-.005.112-.005.15v.003c0 .483.442.9.93.9.487 0 .93-.417.93-.9a.848.848 0 0 0-.284-.623Zm-3.89-7.706L3.848 6.355 5.12 8.408l.616-.987Zm-.615.703.405-.65-1.243-.7.838 1.35Zm3.663-4.959L6.52 6.853l5.69 3.17.451-.745-3.878-6.113Zm4.055 6.111-.575.948-5.953-3.316 2.422-3.947c.02 0 .041.01.062.02.02.01.04.02.061.02l3.983 6.275ZM8.487 2.842a.565.565 0 0 0-.164-.118L3.519 5.369l2.546 1.42 2.422-3.947ZM6.012 6.588l2.244-3.656-4.427 2.437 2.183 1.22Zm6.95 2.965-.534.868 1.642.908-1.108-1.776Zm0 .285-.324.528 1 .552-.675-1.08Z" clip-rule="evenodd"/>
</svg>
